X:1
T:James Gibb editions
T:Chantez à Dieu (Psalm 96) - Sweelinck
T:#
%%score [ 1 2 3 4 ]
L:1/8
Q:1/4=84
M:4/4
K:C
V:1 treble nm="Soprano"
V:2 treble nm="Alto"
V:3 treble-8 nm="Tenor"
V:4 bass nm="Bass"
V:1
"^Chantez à Dieu (Psalm 96)""^J.P. Sweelinck\n(1562 - 1621)" z8 | cd B2 A4 | z A (c>B A)A ^G2 | %3
w: |son nou- vel- le,|chan- son * * nou- vel-|
[M:4/4] A2 z2 z Add | c2 A3 GF(E- | E/D/ D2 ^C) D2 z2 | z Add c2 A2 | GF ED/F/ ED^CD | %8
w: le, chan- tez, ô|terr' u- ni- ver- sel\-|* * * * le,|chan- tez, ô terr' u-|ni- ver- sel- le, u- ni- ver- sel- le,|
 z2 z F ED ^C2 | D2 z F E2 z F | E2 F2 GAFG | A2 z C DECD | E2 z2 z FGA | F2 G2 A4 | E>F GA E2 z2 | %15
w: u- ni- ver- sel-|le. Chan- tez, chan-|tez, et son Nom be- nis-|sez, et son Nom be- nis-|sez, et son Nom|be- nis- sez,|et de jour en jour|
 z2 z G2 F E2 | z c A2 (G>F E)E | GCFG AD E2 | A,2 z A GADE | FG E2 D2 A2 | A>A AG EA ^G2 | %21
w: an- non- cez,|an- non- cez * * sa|de- li- vran- ce so- le- mnel-|le, sa de- li- vran- ce|so- le- mnel- le, sa|de- li- vran- ce so- le- mnel-|
 AF E2 E F2 E | D_B A2 ^F2 z =F | E2 z F E2 F2 | GAFG A2 z C | DECD E2 z2 | z FGA F2 G2 | %27
w: le, sa de- li- vran- ce|so- le- mnel- le, chan-|tez, chan- tez, et|son Nom be- nis- sez, et|son Nom be- nis- sez,|et son Nom be- nis-|
 A4 E>F GA | E2 z2 z2 z G- | GF E2 z c A2 | (G>F E)E GCFG | AD E2 A,2 z A | GADE FG E2 | %33
w: sez, et de jour en|jour an\-|* non- cez, an- non-|cez * * sa de- li- vran- ce|so- le- mnel- le, sa|de- li- vran- ce so- le- mnel-|
 D2 A2 A>A AG | EA ^G2 AF E2 | E F2 E D_B A2 | %36
w: le, sa de- li- vran- ce|so- le- mnel- le, sa de-|li- vran- ce so- le- mnel-|
[Q:1/4=82] ^F2[Q:1/4=78] A3[Q:1/4=75] _B[Q:1/4=73] G2 |[Q:1/4=72] !fermata!^F8 |] %38
w: le, so- lem mnel-|le.|
V:2
 z DFD A2 z D | AA ^G2 AFAF | E2 E F2 F E2 |[M:4/4] ^CEAA (F3 E/D/ | F)E/E/ FF E2 C2 | %5
w: Chan- tez à Dieu chan-|son nou- vel- le, chan- tez à|Dieu chan- son nou- vel-|le, chan- tez, ô ter\- * *|* re, chan- tez, ô terr' u-|
 B,A, E2 A,DCB,- | B, (A,2 ^G,) (A,/B,/C/D/ E)F | ED^CD z2 z A | GF ED/C/ CA, A,2 | %9
w: ni- ver- sel- le, u- ni- ver\-|* sel\- * le, * * * * u-|ni- ver- sel- le, u-|ni- ver- sel- le, u- ni- ver- sel-|
 A,2 z D ^C2 z D | ^C2 DA, z =CDE | CD E2 z4 | z CDE CDEC | D F2 E F2 C>B, | A,G, C2 z2 E>F | %15
w: le. Chan- tez, chan-|tez, chan- tez, et son Nom|be- nis- sez,|et son Nom be- nis- sez, son|Nom be- nis- sez, et de|jour en jour, et de|
 GA E2 ED B,2 | G2 F2 E2 z2 | z4 z2 (G2- | GF/E/ F2) EFFE | DD ^C2 DA, F2 | EFD E2 F E2 | %21
w: jour en jour an- non- cez,|an- non- cez|sa|* * * * de- li- vran- ce|so- le- mnel- le, sa de-|li- vran- ce so- le- mnel-|
 CA, C3 CDG, | _B,/A,/ (D3/2^C/4=B,/4C) D2 z D | ^C2 z D C2 DA, | z !courtesy!=CDE CD E2 | %25
w: le, sa de- li- vran- ce|so- le- mnel\- * * * le, chan-|tez, chan- tez, chan- tez,|et son Nom be- nis- sez,|
 z4 z CDE | CDEC D F2 E | F2 C>B, A,G, C2 | z2 E>F GA E2 | ED B,2 G2 F2 | E2 z2 z4 | %31
w: et son Nom|be- nis- sez, son Nom be- nis-|sez, et de jour en jour,|et de jour en jour|an- non- cez, an- non-|cez|
 z2 (G3 F/E/ F2) | EFFE DD ^C2 | DA, F2 EFDE- | EF E2 CA, C2- | CCDG, _B,/A,/ (D3/2^C/4=B,/4C) | %36
w: sa * * *|de- li- vran- ce so- le- mnel-|le, sa de- li- vran- ce so\-|* le- mnel- le, sa de\-|* li- vran- ce so- le- mnel\- * * *|
 D2 DD D4 | !fermata!D8 |] %38
w: le, so- le- mnel-|le.|
V:3
 z4 z A f2- | fd e2 Addd | c2 A2 cd B2 |[M:4/4][K:treble-8] A4 z4 | z Add c2 A2 | GF E2 D2 G2 | %6
w: Chan- son|* nou- vel- le, chan- tez à|Dieu chan- son nou- vel-|le,|chan- tez, ô terr' u-|ni- ver- sel- le, u-|
 FE D2 E2 z A | cdAD z DEF | GA A2 GF E2 | (D/E/F/G/ A2) z A D2 | z A D2 z4 | z FGA FG A2 | %12
w: ni- ver- sel- le, u-|ni- ver- sel- le, u- ni- ver-|sel- le, u- ni- ver- sel-|le. * * * * Chan- tez,|chan- tez,|et son Nom be- nis- sez,|
 z4 z AcA | A2 c2 c2 z2 | z4 c>B AG | c4 cA ^G2 | e2 d2 B2 c2 | eed c2 B2 ^c | %18
w: et son Nom|be- nis- sez,|et de jour en|jour an- non- cez,|an- non- cez sa|de- li- vran- ce so- le-|
 d2 AA !courtesy!=cF_Bc | dG A2 D2 z d | ^cdAB =cd B2 | A2 z A GADE | FG E2 DA A2 | z A D2 z A D2 | %24
w: mnel- le, sa de- li- vran- ce|so- le- mnel- le, sa|de- li- vran- ce so- le- mnel-|le, sa de- li- vran- ce|so- le- mnel- le, chan- tez,|chan- tez, chan- tez,|
 z4 z FGA | FG A2 z4 | z AcA A2 c2 | c2 z2 z4 | c>B AG c4 | cA ^G2 e2 d2 | B2 c2 eedc- | %31
w: et son Nom|be- nis- sez,|et son Nom be- nis-|sez,|et de jour en jour|an- non- cez, an- non-|cez sa de- li- vran- ce|
 c B2 ^c d2 AA | !courtesy!=cF_Bc dG A2 | D2 z d ^cdAB | !courtesy!=cd B2 A2 z A | GADE FG E2 | %36
w: * so- le- mnel- le, sa|de- li- vran- ce so- le- mnel-|le, sa de- li- vran- ce|so- le- mnel- le, sa|de- li- vran- ce so- le- mnel-|
 D2 ^F3 G _B2 | !fermata!A8 |] %38
w: le, so- le- mnel-|le.|
V:4
 z8 | z4 z D,F,D, | A,2 z F, F,D, E,2 |[M:4/4] A,,2 z A,, D,D, _B,,2 | A,,2 z2 z4 | %5
w: |Chan- tez à|Dieu chan- son nou- vel|le, chan- tez, ô ter-|re,|
 z D,G,G, F,2 E,2 | D,C, B,,2 A,,4 | z2 z A, G,F, E,D,/F,/ | E,D, ^C,D,/A,,/ =C,D, A,,2 | %9
w: chan- tez, ô terr' u-|ni- ver- sel- le,|u- ni- ver- sel- le, u-|ni- ver- sel- le, u- ni- ver- sel-|
 D,2 z D, A,,2 z A, | A,,2 z D, E,F,D,C, | F,2 z2 z2 z F, | G,A,F,G, A,D,C,F, | D,2 C,2 F,4 | %14
w: le. Chan- tez, chan-|tez, et son Nom be- nis-|sez, et|son Nom be- nis- sez, et son Nom|be- nis- sez,|
 C,>D, E,F, C,2 C,>D, | E,F, C,2 C,D, E,2 | C,2 D,2 E,2 A,2 | G,A,D,E, F,G, E,2 | D,4 z4 | %19
w: et de jour en jour, et de|jour en jour an- non- cez,|an- non- cez sa|de- li- vran- ce so- le- mnel-|le,|
 z2 z A,, (A,/G,/F,/E,/ D,/E,/F,/G,/ | A,)D,F,G, A,D, E,2 | A,,D, (A,,>B,, C,)F,,_B,,C, | %22
w: sa de\- * * * * * * *|* li- vran- ce so- le- mnel-|le, sa de\- * * li- vran- ce|
 D,G,, A,,2 D,2 z D, | A,,2 z A, A,,2 z D, | E,F,D,C, F,2 z2 | z2 z F, G,A,F,G, | %26
w: so- le- mnel- le, chan-|tez, chan- tez, et|son Nom be- nis- sez,|et son Nom be- nis-|
 A,D,C,F, D,2 C,2 | F,4 C,>D, E,F, | C,2 C,>D, E,F, C,2 | C,D, E,2 C,2 D,2 | E,2 A,2 G,A,D,E, | %31
w: sez, et son Nom be- nis-|sez, et de jour en|jour, et de jour en jour|an- non- cez, an- non-|cez sa de- li- vran- ce|
 F,G, E,2 D,4 | z4 z2 z A,, | (A,/G,/F,/E,/ D,/E,/F,/G,/ A,)D,F,G, | A,D, E,2 A,,D, A,,>B,, | %35
w: so- le- mnel- le,|sa|de\- * * * * * * * * li- vran- ce|so- le- mnel- le, sa de\- *|
 C,F,,_B,,C, D,G,, A,,2 | D,2 D,3 G,, G,,2 | !fermata!D,8 |] %38
w: * li- vran- ce so- le- mnel-|le, so- le- mnel-|le.|

